src/assets/vectors/DogIconSelected.svg

<svg width="60" height="53" viewBox="0 0 60 53" fill="none" xmlns="http://www.w3.org/2000/svg">
<path d="M24.0213 26.4082C24.0213 27.2784 23.4969 28.063 22.6929 28.3959C21.889 28.7289 20.9635 28.5448 20.3479 27.9292C19.7323 27.3142 19.5482 26.3887 19.8812 25.5848C20.2142 24.7802 20.9994 24.2564 21.8695 24.2564C23.0575 24.2564 24.0213 25.2196 24.0213 26.4082L24.0213 26.4082ZM38.3955 24.265C37.5271 24.2753 36.7499 24.8076 36.4254 25.6134C36.1015 26.4192 36.2935 27.341 36.9127 27.9505C37.532 28.5594 38.4569 28.7369 39.2571 28.3996C40.0574 28.0623 40.577 27.2766 40.5734 26.4082C40.5709 25.8339 40.34 25.2852 39.931 24.8829C39.5221 24.4806 38.9691 24.2576 38.3954 24.2649L38.3955 24.265ZM52.4652 34.9803L49.7124 38.099V38.0996C49.1564 38.5286 48.4715 38.7559 47.7697 38.7437C46.8721 38.7164 46.0049 38.4119 45.2866 37.8729L44.1193 44.2238C43.8647 45.7418 43.0868 47.1231 41.9206 48.127C40.7539 49.1315 39.2724 49.6954 37.7337 49.7209C37.4742 49.7197 37.2154 49.7021 36.9583 49.6686C35.2069 51.5768 32.7076 52.6208 30.1194 52.526C27.5356 52.6226 25.0386 51.5816 23.2897 49.6772C23.0326 49.7112 22.7731 49.7282 22.5143 49.7295C20.9738 49.7058 19.4899 49.1431 18.3219 48.1385C17.1533 47.134 16.3742 45.7521 16.1196 44.2323L14.9608 37.8729C14.2455 38.4107 13.3815 38.7145 12.487 38.7437C11.7851 38.7553 11.1002 38.528 10.5442 38.0996L10.4482 38.0036L7.7653 34.9541C7.39947 34.5707 -1.81797 24.8659 0.691182 16.9114C2.59937 10.8656 13.3323 6.4403 19.6658 4.31463C20.6696 2.8106 22.2418 1.77872 24.0216 1.4567L28.3775 0.725047C29.551 0.523292 30.7499 0.523292 31.9234 0.725047L36.2178 1.46581C37.9977 1.78788 39.5698 2.81912 40.5737 4.32312C47.0122 6.50962 57.6488 10.8655 59.5654 16.8944C62.0831 24.8569 52.8572 34.5622 52.4651 34.9713L52.4652 34.9803ZM14.6031 35.9386L12.7733 26.0425C12.6336 25.2805 12.5637 24.5081 12.5643 23.7333V21.9911C12.5661 20.1169 12.983 18.2666 13.7839 16.5723L18.5233 6.59719C13.5664 8.3747 3.91331 12.4517 2.33648 17.4261C0.123842 24.3957 8.94872 33.6736 9.03553 33.7607L11.6492 36.7662C11.9111 36.923 12.9825 37.4718 14.5941 35.9301L14.6031 35.9386ZM35.0587 49.1199C34.2803 48.7577 33.5814 48.2454 33.0023 47.6122L30.7635 45.1553V45.1559C30.5982 44.9742 30.3642 44.8703 30.1187 44.8703C29.8732 44.8703 29.6393 44.9742 29.474 45.1559L27.2352 47.6128V47.6122C26.6561 48.2454 25.9573 48.7577 25.1788 49.1199C26.6014 50.1949 28.3357 50.777 30.1187 50.777C31.9016 50.777 33.6359 50.1948 35.0585 49.1199H35.0587ZM45.7479 25.7287C45.8688 25.0736 45.9296 24.4088 45.9308 23.7428V22.0006C45.9302 20.3859 45.5735 18.7913 44.8856 17.331L39.5191 6.00557C38.8391 4.53497 37.4876 3.48615 35.8949 3.19135L31.5998 2.45058V2.45119C30.6227 2.28287 29.6236 2.28287 28.6465 2.45119L24.3515 3.19196L24.3521 3.19135C22.7587 3.48607 21.4078 4.53494 20.7278 6.00557L15.3614 17.331C14.6728 18.7913 14.3161 20.3859 14.3155 22.0006V23.7428C14.3167 24.4088 14.3781 25.0736 14.499 25.7287L17.8529 43.9099V43.9105C18.0334 45.0268 18.5998 46.0454 19.4523 46.7885C20.3055 47.5311 21.3915 47.9528 22.5223 47.979C23.8325 47.9698 25.0783 47.4102 25.9544 46.4366L28.1846 43.9712L28.2545 43.9104C27.8389 43.654 27.4846 43.3088 27.2178 42.8999L25.0137 39.4847C24.5883 38.8138 24.4176 38.0129 24.533 37.2265C24.6479 36.4407 25.0411 35.7218 25.6409 35.201C26.2406 34.6802 27.0069 34.3922 27.8018 34.3879H32.4275C33.2412 34.3897 34.0252 34.6899 34.6322 35.232C35.2387 35.774 35.6251 36.5196 35.7181 37.3273C35.8111 38.1355 35.6045 38.9499 35.1372 39.6152L32.7326 43.0214C32.4931 43.3392 32.1978 43.6109 31.8611 43.8229C31.9219 43.8752 31.9833 43.9189 32.0355 43.9797L34.2743 46.4366C35.1512 47.4101 36.397 47.9698 37.7071 47.9789C38.8386 47.9528 39.9264 47.5322 40.7802 46.7891C41.6346 46.0459 42.2027 45.0274 42.385 43.9104L45.7479 25.7287ZM57.9441 17.4266C56.3671 12.4697 46.863 8.41889 41.7666 6.57152L46.506 16.5467C47.3069 18.2409 47.7238 20.0913 47.7256 21.9654V23.7076C47.7262 24.4824 47.6563 25.2548 47.5165 26.0168L45.6437 35.9307C47.2638 37.4815 48.3442 36.9151 48.5624 36.8021L51.1761 33.8227C51.2977 33.6744 60.1139 24.3962 57.9013 17.4274L57.9441 17.4266Z" fill="#FAD7B1"/>
</svg>

<svg xmlns="http://www.w3.org/2000/svg" width="60" height="53" viewBox="0 0 60 53"><g><g><path fill="#fad7b1" d="M24.022 26.404a2.152 2.152 0 1 1-4.303 0 2.152 2.152 0 0 1 4.303 0zm14.375-2.143a2.152 2.152 0 1 1 .052 4.303 2.152 2.152 0 0 1-.052-4.303zm14.07 10.716l-2.753 3.118c-.557.43-1.241.657-1.943.645a4.36 4.36 0 0 1-2.483-.87l-1.168 6.35a6.588 6.588 0 0 1-6.385 5.497 6.24 6.24 0 0 1-.776-.052 8.842 8.842 0 0 1-6.838 2.857 8.825 8.825 0 0 1-6.83-2.849 6.137 6.137 0 0 1-.776.053 6.585 6.585 0 0 1-6.394-5.497l-1.16-6.36a4.353 4.353 0 0 1-2.473.871 3.1 3.1 0 0 1-1.943-.644L10.45 38l-2.683-3.05c-.365-.383-9.583-10.088-7.074-18.042C2.6 10.862 13.333 6.437 19.667 4.31a6.664 6.664 0 0 1 4.356-2.858l4.356-.732a10.462 10.462 0 0 1 3.546 0l4.294.741a6.663 6.663 0 0 1 4.356 2.857c6.438 2.187 17.075 6.543 18.992 12.572 2.517 7.962-6.709 17.667-7.1 18.077zm-37.863.958l-1.83-9.896c-.14-.762-.21-1.535-.209-2.31v-1.742a12.708 12.708 0 0 1 1.22-5.418l4.74-9.976c-4.957 1.778-14.61 5.855-16.187 10.83C.125 24.391 8.95 33.67 9.037 33.756l2.613 3.005c.262.157 1.334.706 2.945-.836zM35.06 49.116a6.506 6.506 0 0 1-2.057-1.507l-2.238-2.457a.872.872 0 0 0-1.29 0l-2.239 2.457a6.506 6.506 0 0 1-2.056 1.507 8.194 8.194 0 0 0 9.88 0zm10.689-23.391c.12-.655.182-1.32.183-1.986v-1.742c0-1.615-.357-3.21-1.045-4.67L39.52 6.002a4.994 4.994 0 0 0-3.624-2.814l-4.295-.741a8.7 8.7 0 0 0-2.953 0l-4.296.741h.001a4.993 4.993 0 0 0-3.624 2.814l-5.367 11.325a10.959 10.959 0 0 0-1.045 4.67v1.742c0 .666.062 1.33.183 1.986l3.354 18.181a4.846 4.846 0 0 0 4.67 4.07 4.661 4.661 0 0 0 3.431-1.543l2.23-2.466.07-.06a3.317 3.317 0 0 1-1.036-1.01l-2.204-3.416a3.317 3.317 0 0 1 .627-4.284c.6-.52 1.366-.809 2.16-.813h4.627a3.32 3.32 0 0 1 2.71 5.227l-2.405 3.407c-.24.317-.535.59-.872.801.061.052.122.096.175.157l2.238 2.457a4.664 4.664 0 0 0 3.433 1.542 4.852 4.852 0 0 0 4.678-4.068zm12.196-8.302c-1.577-4.957-11.08-9.008-16.177-10.855l4.74 9.975a12.708 12.708 0 0 1 1.219 5.419v1.742c0 .775-.07 1.547-.21 2.31l-1.872 9.913c1.62 1.55 2.7.984 2.919.871l2.613-2.979c.122-.148 8.938-9.427 6.725-16.395z"/></g></g></svg>
